X:3
T:Aoibhneas Ellis N� Cheallaigh Set
T:(Last tune is either Yellow Wattle or Hardiman)
T:Aoibhneas Ellis N� Cheallaigh
M:9/8
L:1/8
R:Slip Jig
K:Ador
||:A3 ABA AGE|A2E G2E DEG|A3 ABA AGE|G3 G2E DEG:||:
c2A BAG AGE|cBA BGE DEG|c2A BAG AGE|G3 G2E DEG:||
T:Taim in Arrears
T:M�ll Rua
K:G
||:DGG GAG FGA|BdB GAB c3|DGG GAG FGA|BdB cAF G3:||:
ded BAG FED|ded cAB c3|ded cAG FGA|BdB cAF G3:||
T:Yellow Wattle, The
M:6/8
K:Dmix
||:dcA AGE|ABA ABc|dcA ABc|dcA GED|dcA AGE|ABA AGE|EDD cde|dcA GED:||:
DED c3|ded c3|ded cde|dcA GED|DED c3|ded d2c|ABA ABc|dcA GED:||
T:Hardiman the Fiddler
K:Dmix
||:A2G FDE F2G|A3 AGA cAG|A2G FDE F2G|Add ded cAG:||
Add d2e f2e|Add ded cAG|Add d2e f2g|agf ged cAG|
Add d2e f2e|Add ded cAG|dcA cde f2g|agf ged cAG|

